X:65
T:Denis Murphy's 
R:polka
M:4/4
L:1/8
K:D
|:fgfe d2B2|A2D2 F2A2|G2E2 e3d|c2B2 c2A2|
|fgfe d2B2|A2D2 F2A2|G2E2 e3f|1 e2d2 d3e:|2 e2d2d3B|
|:A2f2 fef2|B2g2 gfg2|A2f2 fef2|efed B2A2|
|A2f2 fef2|B2g2 g3a|b2aa g2e2|1 e2d2d3B:|2 e2d2 d3e|
